X: 2
T: The Golden Ticket $1(\251Eric Merrill)
M: C|
L: 1/8
R: reel
K:G 
"G"DF-F2 G3 F|GFDC B,A,G,B,|"C"C2CD EDCD|"D"A,2-A,B, A,DED |
 "G"DF-F2 G3F|GFDC B,A,G,B,|"C"C2CE DB,CE|1"D"D2G,2-G,DED:|\
	[2 "D"D2A,2-A,2AA||
|:"G"AB-BA BABc |BAGF GFDG| "C"E3B cBcd|"D"A2AB AA FD|
"G"AB-BA BABc |BAGF GFDB,|"C"C2CE DB,CE|[1"D"D2G,2 A2G2 :|[2 "D"D2"G"G,2- G,4 |]
["Trans""D"D2z2z2(e2|]

